assets/images/svg/send.svg

<svg width="23" height="20" viewBox="0 0 23 20" fill="none" xmlns="http://www.w3.org/2000/svg">
<path d="M21.0788 7.8807L3.44779 0.569124C2.70502 0.261065 1.86593 0.396582 1.2579 0.922613C0.649874 1.44873 0.395583 2.25932 0.594304 3.03812L2.32687 9.82858L0.594304 16.619C0.395583 17.3978 0.649831 18.2084 1.25786 18.7345C1.86704 19.2617 2.70635 19.3955 3.44779 19.088L21.0788 11.7765C21.8816 11.4436 22.3802 10.6972 22.3802 9.82858C22.3802 8.95998 21.8816 8.21359 21.0788 7.8807ZM20.5881 10.5945L2.95705 17.906C2.66055 18.0289 2.3387 17.9771 2.09597 17.767C1.85329 17.557 1.75577 17.2461 1.83507 16.9352L3.48505 10.4684H9.84722C10.2008 10.4684 10.4875 10.1819 10.4875 9.82854C10.4875 9.47513 10.2008 9.18866 9.84722 9.18866H3.48509L1.83507 2.72196C1.75577 2.41109 1.85329 2.10012 2.09597 1.89013C2.33865 1.68014 2.66042 1.62818 2.95701 1.75112L20.5881 9.0627C21.0629 9.25959 21.0998 9.69869 21.0998 9.82858C21.0998 9.95847 21.0629 10.3976 20.5881 10.5945Z" fill="white"/>
</svg>

<svg width="23" height="20" fill="none" xmlns="http://www.w3.org/2000/svg"><path d="M21.079 7.88L3.448.57a2.1 2.1 0 00-2.19.353 2.097 2.097 0 00-.664 2.115l1.733 6.79L.594 16.62a2.1 2.1 0 00.664 2.116 2.1 2.1 0 002.19.353l17.63-7.312A2.076 2.076 0 0022.38 9.83c0-.869-.498-1.615-1.301-1.948zm-.49 2.715l-17.633 7.31a.815.815 0 01-.861-.139.814.814 0 01-.26-.832l1.65-6.467h6.361a.64.64 0 100-1.28H3.485l-1.65-6.466a.814.814 0 01.261-.832.815.815 0 01.861-.139l17.631 7.312a.813.813 0 01.512.766c0 .13-.037.569-.512.765z" fill="#fff"/></svg>
